X:1
T:The Doctor and the Dormouse
M:6/8
L:1/8
K:C
 G| cCC EFG| ABc GEG| FAF EGE| FEF D2 G| cCC EFG| ABc GEG| FAF EGE|\
 FED C2 E| EAA AAB| cABc-B A| DGG GGA| BGAB-A G| EAA AAB| cAB cBA|\
 GAG FGF| EFE D2||
